icons/svg/poi_colored/suburb.svg

<?xml version="1.0" encoding="UTF-8" standalone="no"?>
<!-- Created with Inkscape (http://www.inkscape.org/) -->

<svg
   xmlns:dc="http://purl.org/dc/elements/1.1/"
   xmlns:cc="http://creativecommons.org/ns#"
   xmlns:rdf="http://www.w3.org/1999/02/22-rdf-syntax-ns#"
   xmlns:svg="http://www.w3.org/2000/svg"
   xmlns="http://www.w3.org/2000/svg"
   xmlns:sodipodi="http://sodipodi.sourceforge.net/DTD/sodipodi-0.dtd"
   xmlns:inkscape="http://www.inkscape.org/namespaces/inkscape"
   version="1.0"
   width="580"
   height="580"
   id="svg2"
   sodipodi:version="0.32"
   inkscape:version="0.91 r"
   sodipodi:docname="suburb.svg"
   inkscape:output_extension="org.inkscape.output.svg.inkscape">
  <metadata
     id="metadata10">
    <rdf:RDF>
      <cc:Work
         rdf:about="">
        <dc:format>image/svg+xml</dc:format>
        <dc:type
           rdf:resource="http://purl.org/dc/dcmitype/StillImage" />
        <cc:license
           rdf:resource="http://web.resource.org/cc/PublicDomain" />
        <dc:language>en</dc:language>
        <dc:title />
      </cc:Work>
    </rdf:RDF>
  </metadata>
  <sodipodi:namedview
     inkscape:window-height="1004"
     inkscape:window-width="1920"
     inkscape:pageshadow="2"
     inkscape:pageopacity="0.0"
     guidetolerance="10.0"
     gridtolerance="10.0"
     objecttolerance="10.0"
     borderopacity="1.0"
     bordercolor="#666666"
     pagecolor="#ffffff"
     id="base"
     showgrid="false"
     inkscape:zoom="0.25"
     inkscape:cx="1154.0171"
     inkscape:cy="647.9531"
     inkscape:window-x="1680"
     inkscape:window-y="0"
     inkscape:current-layer="svg2"
     inkscape:window-maximized="1"
     inkscape:snap-global="false">
    <inkscape:grid
       type="xygrid"
       id="grid3034" />
  </sodipodi:namedview>
  <defs
     id="defs4">
    <inkscape:perspective
       sodipodi:type="inkscape:persp3d"
       inkscape:vp_x="0 : 290 : 1"
       inkscape:vp_y="0 : 1000 : 0"
       inkscape:vp_z="580 : 290 : 1"
       inkscape:persp3d-origin="290 : 193.33333 : 1"
       id="perspective12" />
    <style
       type="text/css"
       id="style6">
   
    .fil0 {fill:#EF7900}
   
  </style>
    <inkscape:perspective
       id="perspective6807"
       inkscape:persp3d-origin="29.116032 : 19.410688 : 1"
       inkscape:vp_z="58.232063 : 29.116032 : 1"
       inkscape:vp_y="0 : 1000 : 0"
       inkscape:vp_x="0 : 29.116032 : 1"
       sodipodi:type="inkscape:persp3d" />
    <inkscape:perspective
       id="perspective6954"
       inkscape:persp3d-origin="290 : 193.33333 : 1"
       inkscape:vp_z="580 : 290 : 1"
       inkscape:vp_y="0 : 1000 : 0"
       inkscape:vp_x="0 : 290 : 1"
       sodipodi:type="inkscape:persp3d" />
    <inkscape:perspective
       id="perspective2541"
       inkscape:persp3d-origin="240 : 160 : 1"
       inkscape:vp_z="480 : 240 : 1"
       inkscape:vp_y="0 : 1000 : 0"
       inkscape:vp_x="0 : 240 : 1"
       sodipodi:type="inkscape:persp3d" />
    <inkscape:perspective
       id="perspective2750"
       inkscape:persp3d-origin="215 : 143.33333 : 1"
       inkscape:vp_z="430 : 215 : 1"
       inkscape:vp_y="0 : 1000 : 0"
       inkscape:vp_x="0 : 215 : 1"
       sodipodi:type="inkscape:persp3d" />
    <inkscape:perspective
       id="perspective3730"
       inkscape:persp3d-origin="88.929146 : 101.19778 : 1"
       inkscape:vp_z="177.85829 : 151.79668 : 1"
       inkscape:vp_y="0 : 1000 : 0"
       inkscape:vp_x="0 : 151.79668 : 1"
       sodipodi:type="inkscape:persp3d" />
  </defs>
  <a
     id="a3072">
    <g
       id="g1327">
      <path
         id="path1329"
         style="fill:#111111;stroke:#eeeeee;stroke-width:3.40799999"
         d="M 66.275,1.768 C 24.94,1.768 1.704,23.139 1.704,66.804 L 1.704,516.927 C 1.704,557.771 22.598,579.156 63.896,579.156 L 515.92,579.156 C 557.227,579.156 578.149,558.84 578.149,516.927 L 578.149,66.804 C 578.149,24.203 557.227,1.768 514.627,1.768 C 514.624,1.768 66.133,1.625 66.275,1.768 z" />
    </g>
  </a>
  <g
     id="g1327-3"
     transform="matrix(1.4887701,0,0,1.4888106,-703.87313,-249.96612)" />
  <path
     style="fill:#ffffff;fill-opacity:1;stroke:none"
     d="m 81.15936,172.42188 0,347.15624 122.12423,0 0,-324.32404 z m 22.01941,43.02309 22.2011,0 0,17.90512 -22.2011,0 z m 56.02962,0 22.20111,0 0,17.90512 -22.20111,0 z m -55.81161,38.40078 22.20111,0 0,18.28608 -22.20111,0 z m 55.59361,0 22.2011,0 0,18.28608 -22.2011,0 z m -55.59361,36.57217 22.20111,0 0,18.28608 -22.20111,0 z m 55.59361,0 22.2011,0 0,18.28608 -22.2011,0 z m -55.59361,36.57217 22.20111,0 0,18.28608 -22.20111,0 z m 55.59361,0 22.2011,0 0,18.28608 -22.2011,0 z m -55.59361,37.13091 22.20111,0 0,18.28608 -22.20111,0 z m 55.48461,0 22.20109,0 0,18.28608 -22.20109,0 z m -55.48459,36.57217 22.2011,0 0,18.28608 -22.2011,0 z m 55.48459,0 22.20109,0 0,18.28608 -22.20109,0 z m -55.48459,36.57217 22.2011,0 0,18.28608 -22.2011,0 z m 55.48459,0 22.20109,0 0,18.28608 -22.20109,0 z m -55.48459,36.59757 22.2011,0 0,18.28608 -22.2011,0 z m 55.48459,0 22.20109,0 0,18.28608 -22.20109,0 z"
     id="path3-3-1"
     inkscape:connector-curvature="0"
     sodipodi:nodetypes="ccccccccccccccccccccccccccccccccccccccccccccccccccccccccccccccccccccccccccccccccccccc" />
  <path
     style="color:#000000;display:inline;overflow:visible;visibility:visible;fill:#ffffff;fill-opacity:1;fill-rule:nonzero;stroke:none;stroke-width:2;marker:none;enable-background:accumulate"
     d="m 511.84064,117.95425 -89.11836,-74.23556 0,476.28131 89.11836,0 z"
     id="rect2994-7"
     inkscape:connector-curvature="0"
     sodipodi:nodetypes="ccccc" />
  <path
     style="color:#000000;display:inline;overflow:visible;visibility:visible;fill:#ffffff;fill-opacity:1;fill-rule:nonzero;stroke:none;stroke-width:2;marker:none;enable-background:accumulate"
     d="m 265.76635,127.5 23.61825,0 0,-30 11.76666,0 0.0426,-30 8.39958,0 -0.0738,-27.3125 7.76797,-0.0071 -0.0182,27.31958 7.54273,0 0.13768,30 11.67147,0 0,30 23.61824,0 0,392.5 -94.47305,0 z"
     id="rect2994-7-5"
     inkscape:connector-curvature="0"
     sodipodi:nodetypes="ccccccccccccccccc" />
</svg>

<svg width="580" height="580" viewBox="0 0 580 580" fill="none" xmlns="http://www.w3.org/2000/svg">
<path d="M81.1594 172.422V519.578H203.284V195.254L81.1594 172.422ZM103.179 215.445H125.38V233.35H103.179V215.445ZM159.208 215.445H181.41V233.35H159.208V215.445ZM103.397 253.846H125.598V272.132H103.397V253.846ZM158.99 253.846H181.191V272.132H158.99V253.846ZM103.397 290.418H125.598V308.704H103.397V290.418ZM158.99 290.418H181.191V308.704H158.99V290.418ZM103.397 326.99H125.598V345.276H103.397V326.99ZM158.99 326.99H181.191V345.276H158.99V326.99ZM103.397 364.121H125.598V382.407H103.397V364.121ZM158.881 364.121H181.082V382.407H158.881V364.121ZM103.397 400.693H125.598V418.979H103.397V400.693ZM158.881 400.693H181.082V418.979H158.881V400.693ZM103.397 437.265H125.598V455.551H103.397V437.265ZM158.881 437.265H181.082V455.551H158.881V437.265ZM103.397 473.863H125.598V492.149H103.397V473.863ZM158.881 473.863H181.082V492.149H158.881V473.863Z" fill="white"/>
<path d="M511.841 117.954L422.722 43.7188V520H511.841V117.954Z" fill="white"/>
<path d="M265.766 127.5H289.385V97.4998H301.151L301.194 67.4998H309.593L309.52 40.1873L317.288 40.1802L317.269 67.4998H324.812L324.95 97.4998H336.621V127.5H360.24V520H265.766L265.766 127.5Z" fill="white"/>
</svg>
